public/facebook.svg

<svg width="14" height="14" viewBox="0 0 14 14" fill="none" xmlns="http://www.w3.org/2000/svg">
<path d="M0.333252 4.22226H3.11103V13.6667H0.333252V4.22226ZM1.71381 3.11115H1.69825C0.869363 3.11115 0.333252 2.49337 0.333252 1.72171C0.333252 0.933374 0.88603 0.333374 1.72992 0.333374C2.57492 0.333374 3.09547 0.933374 3.11103 1.72171C3.11103 2.49282 2.57492 3.11115 1.71381 3.11115ZM13.6666 13.6667H10.8888V8.61171C10.8888 7.3906 10.2083 6.55726 9.11547 6.55726C8.28159 6.55726 7.83047 7.11949 7.61158 7.66282C7.53158 7.85726 7.55547 8.39504 7.55547 8.66671V13.6667H4.7777V4.22226H7.55547V5.6756C7.95603 5.0556 8.58325 4.22226 10.1877 4.22226C12.1755 4.22226 13.666 5.47226 13.666 8.26337L13.6666 13.6667Z" fill="white"/>
</svg>

<svg width="14" height="14" fill="none" xmlns="http://www.w3.org/2000/svg"><path d="M.333 4.222h2.778v9.445H.333V4.222zm1.38-1.11h-.015c-.829 0-1.365-.619-1.365-1.39C.333.933.886.333 1.73.333c.845 0 1.365.6 1.381 1.389 0 .77-.536 1.39-1.397 1.39zm11.954 10.555h-2.778V8.612c0-1.221-.68-2.055-1.774-2.055-.833 0-1.285.562-1.503 1.106-.08.194-.057.732-.057 1.004v5H4.778V4.222h2.777v1.454c.401-.62 1.028-1.454 2.633-1.454 1.987 0 3.478 1.25 3.478 4.041v5.404z" fill="#fff"/></svg>
